Origami/24x24/apps/rapidsvn.svg

<svg width="24" height="24" version="1.1" viewBox="0 0 24 24" xmlns="http://www.w3.org/2000/svg">
 <path d="M 12,2 A 10,10 0 0 0 2,12 10,10 0 0 0 12,22 10,10 0 0 0 22,12 10,10 0 0 0 12,2 Z" style="fill:#4f4f4f"/>
 <path d="M 2.0097656,12.207031 A 10,10 0 0 0 2,12.5 10,10 0 0 0 12,22.5 10,10 0 0 0 22,12.5 10,10 0 0 0 21.9902,12.292969 10,10 0 0 1 12,22 10,10 0 0 1 2.0097656,12.207031 Z" style="opacity:.2"/>
 <path d="M 12,2 A 10,10 0 0 0 2,12 10,10 0 0 0 2.0097656,12.207031 10,10 0 0 1 12,2.5 10,10 0 0 1 21.990234,12.292969 10,10 0 0 0 22,12 10,10 0 0 0 12,2 Z" style="fill:#ffffff;opacity:.1"/>
 <path d="m19.735534 6.1626891s-5.866915 4.8937799-11.735534 5.0768109c-1.6094745 0.050149-2.5843637-0.337698-3.3752441-0.71455-0.7908797-0.376865-1.9936082-1.5213206-1.9936082-1.5213206l-0.2583717 0.7914568s0.6828758 0.6718978 0.9404735 0.8571918c0.2082633 1.114409 1.0373084 3.847722 4.4373266 3.847722 2.4409799 0 3.9687009-1.937988 4.2776919-3.114115 4.265392-1.215496 8.18056-4.5968524 8.18056-4.5968524zm-1.735534 6.3373109c1e-6 0.600533-0.680793 1-1.487323 1-0.806529 0-1.512677-0.399467-1.512677-1 0-0.600531 0.706148-1 1.512677-1 0.80653 0 1.487323 0.399469 1.487323 1zm-3.677848 5.60545c0 0.710948-0.987943 2.39455-2.190526 2.39455-1.501431 0-3.6508748-1.255413-3.6508748-2.327854 0-1.07244 1.4192681-1.672146 2.9207008-1.672146 1.501431 0 2.9207 0.84588 2.9207 1.60545z" style="opacity:.1"/>
 <path d="m19.117269 5.483566s-5.249044 4.333403-11.117663 4.516434c-1.6094745 0.050149-2.5843637-0.337698-3.3752441-0.71455-0.7908797-0.3768648-1.6374004-1.1067421-1.6374004-1.1067421l-0.5019618 1.2605581s0.5702581 0.527718 0.8278558 0.713012c0.2082633 1.114409 1.0373084 3.847722 4.4373266 3.847722 2.4409796 0 3.9687006-1.937988 4.2776916-3.114115 4.265392-1.215496 7.971732-4.3814056 7.971732-4.3814056zm-1.117663 6.516434c1e-6 0.600533-0.680793 1-1.487323 1-0.806529 0-1.512677-0.399467-1.512677-1 0-0.600531 0.706148-1 1.512677-1 0.80653 0 1.487323 0.399469 1.487323 1zm-3.677848 5.60545c0 0.710948-0.987943 2.39455-2.190526 2.39455-1.501431 0-3.6508745-1.255413-3.6508745-2.327854 0-1.07244 1.4192681-1.672146 2.9207005-1.672146 1.501431 0 2.9207 0.84588 2.9207 1.60545z" style="fill:#e6e6e6"/>
</svg>

<svg xmlns="http://www.w3.org/2000/svg" width="24" height="24" version="1.1" viewBox="0 0 24 24">
 <path style="fill:#4f4f4f" d="M 12,2 A 10,10 0 0 0 2,12 10,10 0 0 0 12,22 10,10 0 0 0 22,12 10,10 0 0 0 12,2 Z"/>
 <path style="opacity:0.2" d="M 2.0097656,12.207031 A 10,10 0 0 0 2,12.5 10,10 0 0 0 12,22.5 10,10 0 0 0 22,12.5 10,10 0 0 0 21.9902,12.292969 10,10 0 0 1 12,22 10,10 0 0 1 2.0097656,12.207031 Z"/>
 <path style="opacity:0.1;fill:#ffffff" d="M 12,2 A 10,10 0 0 0 2,12 10,10 0 0 0 2.0097656,12.207031 10,10 0 0 1 12,2.5 10,10 0 0 1 21.990234,12.292969 10,10 0 0 0 22,12 10,10 0 0 0 12,2 Z"/>
 <path style="opacity:0.1" d="m 19.735534,6.1626891 c 0,0 -5.866915,4.8937799 -11.735534,5.0768109 C 6.3905255,11.289649 5.4156363,10.901802 4.6247559,10.52495 3.8338762,10.148085 2.6311477,9.0036294 2.6311477,9.0036294 L 2.372776,9.7950862 c 0,0 0.6828758,0.6718978 0.9404735,0.8571918 C 3.5215128,11.766687 4.3505579,14.5 7.7505761,14.5 c 2.4409799,0 3.9687009,-1.937988 4.2776919,-3.114115 4.265392,-1.215496 8.18056,-4.5968524 8.18056,-4.5968524 z M 18,12.5 c 1e-6,0.600533 -0.680793,1 -1.487323,1 C 15.706148,13.5 15,13.100533 15,12.5 c 0,-0.600531 0.706148,-1 1.512677,-1 C 17.319207,11.5 18,11.899469 18,12.5 Z m -3.677848,5.60545 c 0,0.710948 -0.987943,2.39455 -2.190526,2.39455 -1.501431,0 -3.6508748,-1.255413 -3.6508748,-2.327854 0,-1.07244 1.4192681,-1.672146 2.9207008,-1.672146 1.501431,0 2.9207,0.84588 2.9207,1.60545 z"/>
 <path style="fill:#e6e6e6" d="m 19.117269,5.483566 c 0,0 -5.249044,4.333403 -11.1176627,4.516434 C 6.3901318,10.050149 5.4152426,9.662302 4.6243622,9.28545 3.8334825,8.9085852 2.9869618,8.1787079 2.9869618,8.1787079 L 2.485,9.439266 c 0,0 0.5702581,0.527718 0.8278558,0.713012 C 3.5211191,11.266687 4.3501642,14 7.7501824,14 10.191162,14 11.718883,12.062012 12.027874,10.885885 16.293266,9.670389 19.999606,6.5044794 19.999606,6.5044794 Z M 17.999606,12 c 1e-6,0.600533 -0.680793,1 -1.487323,1 -0.806529,0 -1.512677,-0.399467 -1.512677,-1 0,-0.600531 0.706148,-1 1.512677,-1 0.80653,0 1.487323,0.399469 1.487323,1 z m -3.677848,5.60545 C 14.321758,18.316398 13.333815,20 12.131232,20 10.629801,20 8.4803575,18.744587 8.4803575,17.672146 8.4803575,16.599706 9.8996256,16 11.401058,16 c 1.501431,0 2.9207,0.84588 2.9207,1.60545 z"/>
</svg>
